!!!COM:	Pierre de la Rue
**kern	**kern
*part2	*part1
*staff2	*staff1
*clefF4	*clefGv2
*k[]	*k[]
*M2/1	*M2/1
=1-	=1-
1.d	0r
4c	.
4B	.
=2	=2
2c	1r
2d	.
1B	[1f
=3	=3
0A	2f]
.	4e
.	4d
.	2e
.	2f
=4	=4
1r	1d
2.A	1c
4B	.
=5	=5
4c	1r
4A	.
1c	.
.	1e
4B	.
4A	.
=6	=6
2G	2.e
2A	.
.	4f
1E	4g
.	4e
.	[2g
=7	=7
4E	2g]
4F	.
4G	4f
4A	4e
2B	2d
2c	2e
=8	=8
2G	2B
1c	1e
[2B	[2d
=9	=9
4B]	4d]
4A	4c
1A	4B
.	4A
.	1B
2r	.
=10	=10
1A	2A
.	2.c
2A	.
.	4d
[2c	[2e
=11	=11
2c]	4e]
.	4f
4B	2.g
4A	.
2G	.
.	4f
2A	4e
.	4d
=12	=12
2E	2c
1A	1f
[2G	[2e
=13	=13
4G]	4e]
4F	4d
4E	1d
4D	.
1E	.
.	2c
=14	=14
0D	0d
==	==
*-	*-
